X: 1
T: O'CONNELL'S WELCOME -- JIG
B: Ryan's Mammoth Collection of Fiddle Tunes
R: jig
M: 6/8
L: 1/8
Z: Contributed 20010704235422 by John Chambers jmchambers:rcn.net
K: G
 vgfg edc | Bc^c dBG | BAB dcB | BAA A2z \
| gfg edc | Bc^c dBG | BAB dcA | AGG G2z :|
|: vgfg afd | gfg a3 | gfg eag | fdd d2z \
| bag agf | gfe d3 | cde dcB | cBA G2z :|
